X:1
T:Eisenach, 88.88.88
T:Eisenach, 88.88.88
T:Johann Herman Schein, 1628
T:Public Domain Courtesy of the Cyber Hymnal™
C:Johann Herman Schein, 1628
Z:Public Domain
Z:Courtesy of the Cyber Hymnal™
%%score ( 1 2 ) ( 3 4 )
L:1/8
Q:1/4=105
M:4/4
K:D
V:1 treble 
V:2 treble 
V:3 bass 
V:4 bass 
V:1
|: [A,D]2 | [DF]2 [DG]2 [EA]2 [DA]2 | G2 [DF]2 [CE]2 [EA]2 | [^GB]2 [Ac]2 [Ed]2 [Ec]2 | %4
 [EB]2 B2 [CA]2 :| [CA]2 x6 | [Dd]2 [Ec]2 [FB]2 [FA]2 | G2 [DF]2 [CE]2 A2 | %8
 [DG]2 [DF]2 [B,E]2 [B,G]2 | [DF]2 [CE]2 D2 x2 |] x7 |] %11
V:2
|: x2 | x8 | (B,C) x6 | x8 | x2 (ED) x2 :| x8 | x8 | (B,C) x3 (FE) x | x8 | x4 D2 x2 |] x7 |] %11
V:3
|: [D,F,]2 | [D,A,]2 [B,,G,]2 [C,E,]2 [D,F,]2 | [E,G,]2 ([F,A,][G,B,]) [A,C]2 C2 | %3
 [B,D]2 [A,E]2 [^G,B,]2 (CA,) | [E,A,]2 [E,^G,]2 [A,,A,]2 :| x8 | (A,G,) x6 | %7
 [B,,F,]2 [C,F,]2 [D,B,]2 [^D,B,]2 | [E,B,]2 A,2 A,2 [F,C]2 | B,2 [D,A,]2 [G,B,]2 [E,G,]2 |] %10
 A,3 z G, [D,F,]2 |] %11
V:4
|: x2 | x8 | x6 C2 | x6 A,2 | x6 :| x8 | A,,2 x6 | x8 | x2 (F,G,) x4 | (B,,C,) x6 |] %10
 A,,2 A,,2 x3 |] %11

